src/assets/outline/CardTick1.svg

<svg width="24" height="24" viewBox="0 0 24 24"  xmlns="http://www.w3.org/2000/svg">
<path d="M22 10.75H2C1.59 10.75 1.25 10.41 1.25 10C1.25 9.59 1.59 9.25 2 9.25H22C22.41 9.25 22.75 9.59 22.75 10C22.75 10.41 22.41 10.75 22 10.75Z" />
<path d="M11.5502 21.25H6.44025C2.46025 21.25 1.24023 20.05 1.24023 16.11V7.89001C1.24023 4.74001 1.91022 2.99001 5.48022 2.78001C5.78022 2.77001 6.10025 2.76001 6.44025 2.76001H17.5502C21.5302 2.76001 22.7502 3.96001 22.7502 7.90001V12.31C22.7502 12.72 22.4102 13.06 22.0002 13.06C21.5902 13.06 21.2502 12.72 21.2502 12.31V7.90001C21.2502 4.81001 20.7002 4.26001 17.5502 4.26001H6.44025C6.12025 4.26001 5.83023 4.27001 5.55023 4.28001C3.38023 4.41001 2.74023 4.90001 2.74023 7.90001V16.12C2.74023 19.21 3.29025 19.76 6.44025 19.76H11.5502C11.9602 19.76 12.3002 20.1 12.3002 20.51C12.3002 20.92 11.9702 21.25 11.5502 21.25Z" />
<path d="M10 16.75H6C5.59 16.75 5.25 16.41 5.25 16C5.25 15.59 5.59 15.25 6 15.25H10C10.41 15.25 10.75 15.59 10.75 16C10.75 16.41 10.41 16.75 10 16.75Z" />
<path d="M18 22.75C16.34 22.75 14.78 21.87 13.94 20.44C13.49 19.72 13.25 18.87 13.25 18C13.25 15.38 15.38 13.25 18 13.25C20.62 13.25 22.75 15.38 22.75 18C22.75 18.87 22.51 19.72 22.06 20.45C21.22 21.87 19.66 22.75 18 22.75ZM18 14.75C16.21 14.75 14.75 16.21 14.75 18C14.75 18.59 14.91 19.17 15.22 19.67C15.8 20.65 16.87 21.25 18 21.25C19.13 21.25 20.2 20.65 20.78 19.68C21.09 19.17 21.25 18.6 21.25 18C21.25 16.21 19.79 14.75 18 14.75Z" />
<path d="M17.4299 19.74C17.2399 19.74 17.0499 19.67 16.8999 19.52L15.9099 18.53C15.6199 18.24 15.6199 17.76 15.9099 17.47C16.1999 17.18 16.6799 17.18 16.9699 17.47L17.4499 17.95L19.0499 16.47C19.3499 16.19 19.8299 16.21 20.1099 16.51C20.3899 16.81 20.3699 17.29 20.0699 17.57L17.9399 19.54C17.7899 19.67 17.6099 19.74 17.4299 19.74Z" />
</svg>

<?xml version="1.0" encoding="UTF-8"?>
<svg width="24" height="24" viewBox="0 0 24 24" xmlns="http://www.w3.org/2000/svg">
 <path d="m22 10.75h-20c-0.41 0-0.75-0.34-0.75-0.75s0.34-0.75 0.75-0.75h20c0.41 0 0.75 0.34 0.75 0.75s-0.34 0.75-0.75 0.75z"/>
 <path d="m11.55 21.25h-5.11c-3.98 0-5.2-1.2-5.2-5.14v-8.22c0-3.15 0.66999-4.9 4.24-5.11 0.3-0.01 0.62003-0.02 0.96003-0.02h11.11c3.98 0 5.2 1.2 5.2 5.14v4.41c0 0.41-0.34 0.75-0.75 0.75s-0.75-0.34-0.75-0.75v-4.41c0-3.09-0.55-3.64-3.7-3.64h-11.11c-0.32 0-0.61002 0.01-0.89002 0.02-2.17 0.13-2.81 0.62-2.81 3.62v8.22c0 3.09 0.55002 3.64 3.7 3.64h5.11c0.41 0 0.75 0.34 0.75 0.75s-0.33 0.74-0.75 0.74z"/>
 <path d="m10 16.75h-4c-0.41 0-0.75-0.34-0.75-0.75s0.34-0.75 0.75-0.75h4c0.41 0 0.75 0.34 0.75 0.75s-0.34 0.75-0.75 0.75z"/>
 <path d="m18 22.75c-1.66 0-3.22-0.88-4.06-2.31-0.45-0.72-0.69-1.57-0.69-2.44 0-2.62 2.13-4.75 4.75-4.75s4.75 2.13 4.75 4.75c0 0.87-0.24 1.72-0.69 2.45-0.84 1.42-2.4 2.3-4.06 2.3zm0-8c-1.79 0-3.25 1.46-3.25 3.25 0 0.59 0.16 1.17 0.47 1.67 0.58 0.98 1.65 1.58 2.78 1.58s2.2-0.6 2.78-1.57c0.31-0.51 0.47-1.08 0.47-1.68 0-1.79-1.46-3.25-3.25-3.25z"/>
 <path d="m17.43 19.74c-0.19 0-0.38-0.07-0.53-0.22l-0.99-0.99c-0.29-0.29-0.29-0.77 0-1.06s0.77-0.29 1.06 0l0.48 0.48 1.6-1.48c0.3-0.28 0.78-0.26 1.06 0.04s0.26 0.78-0.04 1.06l-2.13 1.97c-0.15 0.13-0.33 0.2-0.51 0.2z"/>
</svg>
